Numix-Light-GalliumOS/16/status/renamed-hb-icon.svg

<?xml version="1.0" encoding="UTF-8" standalone="no"?>
<svg
   xmlns:dc="http://purl.org/dc/elements/1.1/"
   xmlns:cc="http://creativecommons.org/ns#"
   xmlns:rdf="http://www.w3.org/1999/02/22-rdf-syntax-ns#"
   xmlns:svg="http://www.w3.org/2000/svg"
   xmlns="http://www.w3.org/2000/svg"
   xmlns:sodipodi="http://sodipodi.sourceforge.net/DTD/sodipodi-0.dtd"
   xmlns:inkscape="http://www.inkscape.org/namespaces/inkscape"
   width="16"
   viewBox="0 0 4.5155556 4.5155556"
   height="16"
   id="svg2"
   version="1.1"
   inkscape:version="0.91 r"
   sodipodi:docname="renamed-hb-icon.svg">
  <metadata
     id="metadata24">
    <rdf:RDF>
      <cc:Work
         rdf:about="">
        <dc:format>image/svg+xml</dc:format>
        <dc:type
           rdf:resource="http://purl.org/dc/dcmitype/StillImage" />
        <dc:title />
      </cc:Work>
    </rdf:RDF>
  </metadata>
  <sodipodi:namedview
     pagecolor="#ffffff"
     bordercolor="#666666"
     borderopacity="1"
     objecttolerance="10"
     gridtolerance="10"
     guidetolerance="10"
     inkscape:pageopacity="0"
     inkscape:pageshadow="2"
     inkscape:window-width="1366"
     inkscape:window-height="747"
     id="namedview22"
     showgrid="false"
     inkscape:zoom="13.915862"
     inkscape:cx="7.5369562"
     inkscape:cy="11.529535"
     inkscape:window-x="0"
     inkscape:window-y="21"
     inkscape:window-maximized="1"
     inkscape:current-layer="svg2" />
  <defs
     id="defs4" />
  <path
     style="fill:#353535;fill-opacity:1"
     d="M 2.1118709,0.63354352 C 1.8023482,0.65951212 1.4989244,0.71202972 1.3172373,0.77899382 0.95386384,0.91292142 0.89513224,0.92138842 0.92361604,1.0533947 1.0497451,1.250719 1.114266,1.4738423 1.229719,1.677128 1.263917,1.703214 1.303799,1.717255 1.3625055,1.69158 1.8451028,1.4937441 2.3440183,1.3969861 3.0408697,1.5658928 3.23417,1.4352564 3.3115619,1.098722 3.3661253,0.88581392 3.3966783,0.76529032 3.3559203,0.72735422 2.9433088,0.64789902 2.7370028,0.60817042 2.4213944,0.60757482 2.1118709,0.63354342 Z M 1.3847241,1.0578925 c 0.037878,-0.00308 0.071065,0.025972 0.07407,0.064854 0.003,0.038882 -0.025302,0.072948 -0.063179,0.076033 -0.037878,0.00308 -0.071065,-0.025971 -0.07407,-0.064853 -0.003,-0.038882 0.025302,-0.072948 0.063179,-0.076033 z M 2.8994522,0.93756292 c 0.037878,-0.00308 0.0709,0.025985 0.073906,0.064867 0.003,0.038882 -0.025137,0.072934 -0.063014,0.07602 -0.037878,0.00308 -0.071064,-0.025972 -0.07407,-0.064854 -0.003,-0.038882 0.025302,-0.072948 0.063179,-0.076033 z"
     id="path18"
     inkscape:connector-curvature="0" />
  <path
     style="fill:#353535;fill-opacity:1"
     d="m 2.2577774,1.0262672 c -0.7935022,0 -1.43676206,0.64326 -1.43676206,1.4367625 0,0.7935018 0.64325986,1.4367622 1.43676206,1.4367622 0.7935019,0 1.4367625,-0.6432604 1.4367625,-1.4367622 0,-0.7935025 -0.6432606,-1.4367625 -1.4367625,-1.4367625 z m 0,0.9877743 c 0.2474372,0 0.4489881,0.2015507 0.4489881,0.4489882 0,0.2474374 -0.2015509,0.4489883 -0.4489881,0.4489883 -0.2474376,0 -0.4489882,-0.2015509 -0.4489882,-0.4489883 0,-0.2474375 0.2015506,-0.4489882 0.4489882,-0.4489882 z m 0,0.089798 c -0.1989073,0 -0.3591905,0.1602797 -0.3591905,0.3591906 0,0.1989108 0.1602832,0.3591904 0.3591905,0.3591904 0.198907,0 0.3591904,-0.1602796 0.3591904,-0.3591904 0,-0.1989109 -0.1602835,-0.3591906 -0.3591904,-0.3591906 z m 0,0.1346964 c 0.1239845,0 0.2244938,0.1005095 0.2244938,0.2244942 0,0.1239847 -0.1005093,0.224494 -0.2244938,0.224494 -0.1239845,0 -0.2244942,-0.1005093 -0.2244942,-0.224494 0,-0.1239847 0.1005097,-0.2244942 0.2244942,-0.2244942 z"
     id="path20"
     inkscape:connector-curvature="0" />
</svg>

<svg xmlns="http://www.w3.org/2000/svg" width="16" viewBox="0 0 4.5155556 4.5155556" height="16">
 <path d="m 2.112 0.634 c -0.31 0.026 -0.613 0.078 -0.795 0.145 -0.363 0.134 -0.422 0.142 -0.394 0.274 0.126 0.197 0.191 0.42 0.306 0.624 0.034 0.026 0.074 0.04 0.133 0.014 0.483 -0.198 0.982 -0.295 1.678 -0.126 0.193 -0.131 0.271 -0.467 0.325 -0.68 0.031 -0.121 -0.01 -0.158 -0.423 -0.238 -0.206 -0.04 -0.522 -0.04 -0.831 -0.014 m -0.727 0.424 c 0.038 -0.003 0.071 0.026 0.074 0.065 0.003 0.039 -0.025 0.073 -0.063 0.076 -0.038 0.003 -0.071 -0.026 -0.074 -0.065 -0.003 -0.039 0.025 -0.073 0.063 -0.076 z m 1.515 -0.12 c 0.038 -0.003 0.071 0.026 0.074 0.065 0.003 0.039 -0.025 0.073 -0.063 0.076 -0.038 0.003 -0.071 -0.026 -0.074 -0.065 -0.003 -0.039 0.025 -0.073 0.063 -0.076 z" style="fill:#353535;fill-opacity:1"/>
 <path d="m 2.258 1.026 c -0.794 0 -1.437 0.643 -1.437 1.437 0 0.794 0.643 1.437 1.437 1.437 0.794 0 1.437 -0.643 1.437 -1.437 0 -0.794 -0.643 -1.437 -1.437 -1.437 z m 0 0.988 c 0.247 0 0.449 0.202 0.449 0.449 0 0.247 -0.202 0.449 -0.449 0.449 -0.247 0 -0.449 -0.202 -0.449 -0.449 0 -0.247 0.202 -0.449 0.449 -0.449 z m 0 0.09 c -0.199 0 -0.359 0.16 -0.359 0.359 0 0.199 0.16 0.359 0.359 0.359 0.199 0 0.359 -0.16 0.359 -0.359 0 -0.199 -0.16 -0.359 -0.359 -0.359 z m 0 0.135 c 0.124 0 0.224 0.101 0.224 0.224 0 0.124 -0.101 0.224 -0.224 0.224 -0.124 0 -0.224 -0.101 -0.224 -0.224 0 -0.124 0.101 -0.224 0.224 -0.224 z" style="fill:#353535;fill-opacity:1"/>
</svg>
